inst/assets/svg/wi-hail.svg

<?xml version="1.0" encoding="UTF-8"?>
<svg xmlns="http://www.w3.org/2000/svg" xmlns:xlink="http://www.w3.org/1999/xlink" width="30pt" height="30pt" viewBox="0 0 30 30" version="1.1">
<g id="surface256">
<path style=" stroke:none;fill-rule:nonzero;fill:rgb(0%,0%,0%);fill-opacity:1;" d="M 4.640625 16.898438 C 4.640625 18.230469 5.101563 19.371094 6.03125 20.328125 C 6.960938 21.289063 8.089844 21.800781 9.429688 21.859375 C 9.539063 21.859375 9.601563 21.800781 9.601563 21.691406 L 9.601563 20.351563 C 9.601563 20.238281 9.539063 20.179688 9.429688 20.179688 C 8.570313 20.140625 7.851563 19.800781 7.25 19.160156 C 6.648438 18.519531 6.351563 17.769531 6.351563 16.898438 C 6.351563 16.070313 6.628906 15.359375 7.191406 14.738281 C 7.75 14.128906 8.449219 13.769531 9.28125 13.671875 L 9.808594 13.640625 C 9.941406 13.640625 10.011719 13.578125 10.011719 13.449219 L 10.070313 12.921875 C 10.179688 11.839844 10.628906 10.929688 11.441406 10.210938 C 12.25 9.480469 13.199219 9.121094 14.289063 9.121094 C 15.378906 9.121094 16.328125 9.480469 17.140625 10.210938 C 17.949219 10.941406 18.410156 11.839844 18.53125 12.921875 L 18.609375 13.5 C 18.609375 13.609375 18.671875 13.671875 18.789063 13.671875 L 20.398438 13.671875 C 21.289063 13.671875 22.058594 13.988281 22.710938 14.628906 C 23.359375 15.269531 23.691406 16.019531 23.691406 16.898438 C 23.691406 17.769531 23.390625 18.519531 22.789063 19.160156 C 22.191406 19.800781 21.460938 20.140625 20.609375 20.179688 C 20.480469 20.179688 20.410156 20.238281 20.410156 20.351563 L 20.410156 21.691406 C 20.410156 21.800781 20.480469 21.859375 20.609375 21.859375 C 21.480469 21.839844 22.28125 21.601563 23.011719 21.148438 C 23.738281 20.699219 24.320313 20.101563 24.738281 19.351563 C 25.160156 18.601563 25.371094 17.78125 25.371094 16.910156 C 25.371094 16.019531 25.148438 15.191406 24.699219 14.441406 C 24.261719 13.691406 23.648438 13.089844 22.890625 12.660156 C 22.128906 12.230469 21.289063 12 20.398438 12 L 20.078125 12 C 19.761719 10.660156 19.050781 9.570313 17.980469 8.71875 C 16.910156 7.871094 15.679688 7.441406 14.300781 7.441406 C 12.890625 7.441406 11.640625 7.878906 10.550781 8.75 C 9.460938 9.621094 8.761719 10.738281 8.449219 12.101563 C 7.339844 12.359375 6.429688 12.929688 5.71875 13.828125 C 5.011719 14.730469 4.640625 15.75 4.640625 16.898438 Z M 10.089844 24.101563 C 10.179688 24.308594 10.339844 24.46875 10.550781 24.558594 C 10.75 24.660156 10.960938 24.671875 11.171875 24.578125 C 11.390625 24.488281 11.53125 24.339844 11.621094 24.128906 C 11.71875 23.910156 11.730469 23.699219 11.640625 23.488281 C 11.558594 23.28125 11.398438 23.140625 11.191406 23.050781 C 10.988281 22.941406 10.789063 22.929688 10.578125 23.019531 C 10.371094 23.109375 10.21875 23.261719 10.121094 23.488281 C 10.011719 23.660156 10.011719 23.859375 10.089844 24.101563 Z M 10.71875 21.28125 C 10.71875 21.441406 10.769531 21.589844 10.871094 21.730469 C 10.96875 21.878906 11.128906 21.980469 11.328125 22.050781 C 11.519531 22.160156 11.730469 22.171875 11.949219 22.058594 C 12.171875 21.960938 12.320313 21.761719 12.390625 21.460938 L 13.289063 18.078125 C 13.351563 17.828125 13.328125 17.609375 13.210938 17.410156 C 13.089844 17.210938 12.921875 17.089844 12.679688 17.050781 C 12.601563 17.03125 12.519531 17.019531 12.441406 17.019531 C 12.28125 17.019531 12.121094 17.070313 11.96875 17.171875 C 11.820313 17.269531 11.710938 17.421875 11.648438 17.609375 L 10.769531 21 C 10.730469 21.160156 10.71875 21.25 10.71875 21.28125 Z M 12.578125 26.871094 C 12.578125 26.988281 12.601563 27.089844 12.640625 27.160156 C 12.730469 27.378906 12.878906 27.53125 13.089844 27.609375 C 13.179688 27.660156 13.289063 27.691406 13.421875 27.691406 C 13.480469 27.691406 13.578125 27.671875 13.71875 27.628906 C 13.941406 27.550781 14.101563 27.398438 14.191406 27.179688 C 14.289063 26.960938 14.289063 26.738281 14.191406 26.519531 C 14.089844 26.300781 13.941406 26.148438 13.738281 26.058594 C 13.539063 25.96875 13.339844 25.96875 13.121094 26.058594 C 12.929688 26.140625 12.800781 26.261719 12.710938 26.421875 C 12.621094 26.578125 12.578125 26.730469 12.578125 26.871094 Z M 13.308594 24.261719 C 13.308594 24.628906 13.519531 24.871094 13.941406 24.988281 C 14.050781 25.019531 14.128906 25.03125 14.179688 25.03125 C 14.328125 25.03125 14.460938 25 14.558594 24.949219 C 14.769531 24.871094 14.910156 24.679688 14.980469 24.378906 L 16.648438 18.089844 C 16.710938 17.851563 16.691406 17.640625 16.589844 17.441406 C 16.488281 17.25 16.320313 17.121094 16.101563 17.058594 C 16.019531 17.039063 15.929688 17.03125 15.828125 17.03125 C 15.671875 17.03125 15.511719 17.078125 15.351563 17.179688 C 15.191406 17.28125 15.089844 17.429688 15.050781 17.621094 L 13.339844 23.960938 C 13.320313 24.101563 13.308594 24.199219 13.308594 24.261719 Z M 16.738281 23.800781 C 16.738281 23.921875 16.761719 24.03125 16.820313 24.121094 C 16.898438 24.308594 17.050781 24.460938 17.261719 24.558594 C 17.371094 24.601563 17.488281 24.628906 17.609375 24.628906 C 17.671875 24.628906 17.769531 24.609375 17.910156 24.570313 C 18.121094 24.488281 18.28125 24.339844 18.371094 24.128906 C 18.441406 23.910156 18.441406 23.699219 18.359375 23.5 C 18.28125 23.300781 18.140625 23.148438 17.941406 23.050781 C 17.710938 22.941406 17.5 22.929688 17.289063 23.019531 C 17.078125 23.109375 16.929688 23.261719 16.828125 23.488281 C 16.769531 23.589844 16.738281 23.691406 16.738281 23.800781 Z M 17.46875 21.230469 C 17.46875 21.371094 17.519531 21.519531 17.628906 21.679688 C 17.738281 21.839844 17.890625 21.949219 18.078125 22.011719 C 18.238281 22.039063 18.328125 22.058594 18.351563 22.058594 C 18.441406 22.058594 18.570313 22.03125 18.71875 21.960938 C 18.921875 21.871094 19.050781 21.691406 19.121094 21.441406 L 20.019531 18.101563 C 20.039063 17.929688 20.050781 17.839844 20.050781 17.839844 C 20.050781 17.679688 20 17.53125 19.898438 17.378906 C 19.800781 17.230469 19.648438 17.128906 19.449219 17.070313 C 19.359375 17.050781 19.269531 17.039063 19.191406 17.039063 C 19.03125 17.039063 18.871094 17.089844 18.71875 17.191406 C 18.570313 17.289063 18.46875 17.441406 18.410156 17.640625 L 17.511719 21 Z M 17.46875 21.230469 "/>
</g>
</svg>

<?xml version="1.0" encoding="utf-8"?>
<!-- Generator: Adobe Illustrator 22.0.1, SVG Export Plug-In . SVG Version: 6.00 Build 0)  -->
<svg version="1.1" id="Layer_1" xmlns="http://www.w3.org/2000/svg" xmlns:xlink="http://www.w3.org/1999/xlink" x="0px" y="0px"
	 viewBox="0 0 30 30" style="enable-background:new 0 0 30 30;" xml:space="preserve">
<path d="M4.64,16.9c0,1.33,0.46,2.47,1.39,3.43c0.93,0.96,2.06,1.47,3.4,1.53c0.11,0,0.17-0.06,0.17-0.17v-1.34
	c0-0.11-0.06-0.17-0.17-0.17c-0.86-0.04-1.58-0.38-2.18-1.02c-0.6-0.64-0.9-1.39-0.9-2.26c0-0.83,0.28-1.54,0.84-2.16
	c0.56-0.61,1.26-0.97,2.09-1.07l0.53-0.03c0.13,0,0.2-0.06,0.2-0.19l0.06-0.53c0.11-1.08,0.56-1.99,1.37-2.71
	c0.81-0.73,1.76-1.09,2.85-1.09c1.09,0,2.04,0.36,2.85,1.09c0.81,0.73,1.27,1.63,1.39,2.71l0.08,0.58c0,0.11,0.06,0.17,0.18,0.17
	h1.61c0.89,0,1.66,0.32,2.31,0.96c0.65,0.64,0.98,1.39,0.98,2.27c0,0.87-0.3,1.62-0.9,2.26c-0.6,0.64-1.33,0.98-2.18,1.02
	c-0.13,0-0.2,0.06-0.2,0.17v1.34c0,0.11,0.07,0.17,0.2,0.17c0.87-0.02,1.67-0.26,2.4-0.71c0.73-0.45,1.31-1.05,1.73-1.8
	c0.42-0.75,0.63-1.57,0.63-2.44c0-0.89-0.22-1.72-0.67-2.47c-0.44-0.75-1.05-1.35-1.81-1.78S21.29,12,20.4,12h-0.32
	c-0.32-1.34-1.03-2.43-2.1-3.28s-2.3-1.28-3.68-1.28c-1.41,0-2.66,0.44-3.75,1.31c-1.09,0.87-1.79,1.99-2.1,3.35
	c-1.11,0.26-2.02,0.83-2.73,1.73S4.64,15.75,4.64,16.9z M10.09,24.1c0.09,0.21,0.25,0.37,0.46,0.46c0.2,0.1,0.41,0.11,0.62,0.02
	c0.22-0.09,0.36-0.24,0.45-0.45c0.1-0.22,0.11-0.43,0.02-0.64c-0.08-0.21-0.24-0.35-0.45-0.44c-0.2-0.11-0.4-0.12-0.61-0.03
	c-0.21,0.09-0.36,0.24-0.46,0.47C10.01,23.66,10.01,23.86,10.09,24.1z M10.72,21.28c0,0.16,0.05,0.31,0.15,0.45
	c0.1,0.15,0.26,0.25,0.46,0.32c0.19,0.11,0.4,0.12,0.62,0.01c0.22-0.1,0.37-0.3,0.44-0.6l0.9-3.38c0.06-0.25,0.04-0.47-0.08-0.67
	c-0.12-0.2-0.29-0.32-0.53-0.36c-0.08-0.02-0.16-0.03-0.24-0.03c-0.16,0-0.32,0.05-0.47,0.15c-0.15,0.1-0.26,0.25-0.32,0.44
	l-0.88,3.39C10.73,21.16,10.72,21.25,10.72,21.28z M12.58,26.87c0,0.12,0.02,0.22,0.06,0.29c0.09,0.22,0.24,0.37,0.45,0.45
	c0.09,0.05,0.2,0.08,0.33,0.08c0.06,0,0.16-0.02,0.3-0.06c0.22-0.08,0.38-0.23,0.47-0.45c0.1-0.22,0.1-0.44,0-0.66
	c-0.1-0.22-0.25-0.37-0.45-0.46c-0.2-0.09-0.4-0.09-0.62,0c-0.19,0.08-0.32,0.2-0.41,0.36C12.62,26.58,12.58,26.73,12.58,26.87z
	 M13.31,24.26c0,0.37,0.21,0.61,0.63,0.73c0.11,0.03,0.19,0.04,0.24,0.04c0.15,0,0.28-0.03,0.38-0.08c0.21-0.08,0.35-0.27,0.42-0.57
	l1.67-6.29c0.06-0.24,0.04-0.45-0.06-0.65c-0.1-0.19-0.27-0.32-0.49-0.38c-0.08-0.02-0.17-0.03-0.27-0.03
	c-0.16,0-0.32,0.05-0.48,0.15c-0.16,0.1-0.26,0.25-0.3,0.44l-1.71,6.34C13.32,24.1,13.31,24.2,13.31,24.26z M16.74,23.8
	c0,0.12,0.02,0.23,0.08,0.32c0.08,0.19,0.23,0.34,0.44,0.44c0.11,0.04,0.23,0.07,0.35,0.07c0.06,0,0.16-0.02,0.3-0.06
	c0.21-0.08,0.37-0.23,0.46-0.44c0.07-0.22,0.07-0.43-0.01-0.63c-0.08-0.2-0.22-0.35-0.42-0.45c-0.23-0.11-0.44-0.12-0.65-0.03
	c-0.21,0.09-0.36,0.24-0.46,0.47C16.77,23.59,16.74,23.69,16.74,23.8z M17.47,21.23c0,0.14,0.05,0.29,0.16,0.45
	c0.11,0.16,0.26,0.27,0.45,0.33c0.16,0.03,0.25,0.05,0.27,0.05c0.09,0,0.22-0.03,0.37-0.1c0.2-0.09,0.33-0.27,0.4-0.52l0.9-3.34
	c0.02-0.17,0.03-0.26,0.03-0.26c0-0.16-0.05-0.31-0.15-0.46c-0.1-0.15-0.25-0.25-0.45-0.31c-0.09-0.02-0.18-0.03-0.26-0.03
	c-0.16,0-0.32,0.05-0.47,0.15s-0.25,0.25-0.31,0.45l-0.9,3.36L17.47,21.23z"/>
</svg>
